!!!COM: Schubert, Franz
!!!CNT: Deutscher
!!!TXO: Deutsch
!!!OTL: "Staendchen"
!!!OPR: Schwanengesang
!!!LYR: Rellstab, Ludwig
!!!ONM: No. 4
!!!ODT: 1828/
!!NB: Vocal melody only encoded.
**kern	**silbe
*clefG2	*
*k[b-]	*
*M3/4	*
*MM[massig]	*
=5	=5
{(12a	{Lei-
12b-)	|
12a	-se
4.dd	fle-
8a	-hen
=6	=6
(12g	mei-
12a)	|
12g	-ne
4dd	Lie-
8g}	-der}
8r	.
=7	=7
{4.a	{durch
8g	die
(12g	Nacht
12f)	|
12e	zu
=8	=8
2f}	dir;}
4r	.
=11	=11
{(12a	{in-
12b-)	|
12a	-den
4.ff	stil-
8a	-len
=12	=12
(12g	Hain
12a)	|
12g	her-
4.ee	-nie-
8dd}	-der,}
=13	=13
{4.cc	{Lieb-
8b-	-chen,
(12b-	komm
12a)	|
12g	zu
=14	=14
2a}	mir!}
4r	.
=17	=17
{8.a	{Flu2-
16cc#	-sternd
4.ff	schlan-
8ee	-ke
=18	=18
8.dd	Wip-
16a	-fel
4.f	rau-
8d}	-schen}
=19	=19
{(b-q	{in
ccq	|
12b-	|
12a)	|
12b-	des
4.dd	Mon-
8b-	-des
=20	=20
2.a}	Licht,}
=21	=21
{(gq	{in
aq	|
12g	|
12f#)	|
12g	des
4.b-	Mon-
8g	-des
=22	=22
2.fn}	Licht;}
=23	=23
{8.a	{des
16cc#	Ver-
4.ff	-ra2-
8ee	-thers
=24	=24
8.dd	feind-
16a	-lich
4.f#	Lau-
8dd}	-schen}
=25	=25
{(bnq	{fu2rch-
cc#q	|
12bn	|
12a#	|
12bn)	-te,
4.dd	Hol-
8bn	-de,
=26	=26
2.a}	nicht,}
=27	=27
{(12ee	{fu2rch-
12dd#)	|
12ee	-te
4.gg	Hol-
8cc#	-de,
=28	=28
2.dd}	nicht!}
=29	=29
{8.a	{Lass
16a	auch
8.cc#	dir
16cc#	die
8.ee	Brust
16ee	be-
=30	=30
4dd	-we-
4cc#}	-gen,}
4r	.
=31	=31
{4.a	{Lieb-
8cc#	-chen,
8.ee	ho2-
16dd	-re
=32	=32
2cc#}	mich!}
4r	.
=33	=33
{4.ff#	{be-
8ee	-bend
(12ee	harr'
12dd)	|
12cc#	ich
=34	=34
8.bn	dir
16cc#	ent-
4dd	-ge-
8b	-gen!
8r	.
=37	=37
(bnq	komm,
cc#q	|
12bn	|
12a#)	|
12bn	beg-
4.dd	-lu2-
8bn	-cke
=38	=38
2.a}	mich!}
=39	=39
{(12ee	{komm,
12dd#)	|
12ee	beg-
4.gg	-lu2-
8cc#	-cke
=40	=40
[2.dd	mich,
=41	=41
4dd]}	|}
4r	.
{4dd	{be-
=42	=42
2.b-	-glu2-
=43	=43
2.a	-cke
=44	=44
2f#}	mich!}
4r	.
*-	*-
